icons/KoraCustom/apps/scalable/audoban.applet.playbar.svg

<svg xmlns="http://www.w3.org/2000/svg" width="48" height="48" x="0" y="0" version="1.1">
 <defs>
  <linearGradient id="linearGradient4282" x1="409.57" x2="409.57" y1="540.8" y2="506.8" gradientTransform="matrix(0.11765,0,0,0.11765,-79.193198,-70.766586)" gradientUnits="userSpaceOnUse">
   <stop offset="0" stop-color="#2a2c2f"/>
   <stop offset="1" stop-color="#424649"/>
  </linearGradient>
 </defs>
 <rect style="opacity:0.2" width="34" height="40" x="7" y="5" rx="2" ry="2"/>
 <rect style="fill:#4954bf" width="34" height="40" x="7" y="4" rx="2" ry="2"/>
 <path style="opacity:0.2" d="m 24,7 c -6.648,0 -12,5.352 -12,12 0,6.648 5.352,12 12,12 6.648,0 12,-5.352 12,-12 C 36,12.352 30.648,7 24,7 Z m 0,2 c 5.54,0 10,4.46 10,10 0,5.54 -4.46,10 -10,10 C 18.46,29 14,24.54 14,19 14,13.46 18.46,9 24,9 Z m -4.583984,3.541016 a 0.50005,0.50005 0 0 0 -0.296875,0.121093 c -2.083181,1.604265 -3.24503,4.130146 -3.107422,6.75586 a 0.50005,0.50005 0 0 0 0.533203,0.480469 0.50005,0.50005 0 0 0 0.464844,-0.53125 c -0.12046,-2.298512 0.895165,-4.509714 2.71875,-5.914063 a 0.50005,0.50005 0 0 0 -0.3125,-0.912109 z M 24,14 c -2.77,0 -5,2.23 -5,5 0,2.77 2.23,5 5,5 2.77,0 5,-2.23 5,-5 0,-2.77 -2.23,-5 -5,-5 z m 0,4 c 0.554,0 1,0.446 1,1 0,0.554 -0.446,1 -1,1 -0.554,0 -1,-0.446 -1,-1 0,-0.554 0.446,-1 1,-1 z m 7.455078,0.101562 a 0.50005,0.50005 0 0 0 -0.464844,0.53125 c 0.12046,2.298512 -0.895165,4.509714 -2.71875,5.914063 a 0.50005,0.50005 0 1 0 0.609375,0.791016 c 2.083181,-1.604265 3.24503,-4.130146 3.107422,-6.75586 a 0.50005,0.50005 0 0 0 -0.533203,-0.480469 z"/>
 <path style="opacity:0.2" d="M 21.75,33 C 21.3345,33 21,33.3345 21,33.75 V 36 38.25 C 21,38.6655 21.3345,39 21.75,39 H 24 26.25 C 26.6655,39 27,38.6655 27,38.25 V 36 33.75 C 27,33.3345 26.6655,33 26.25,33 H 24 Z m 0.25,1 4,2 -4,2 z"/>
 <path style="fill:#ffffff" d="M 21.75,32 C 21.3345,32 21,32.3345 21,32.75 V 35 37.25 C 21,37.6655 21.3345,38 21.75,38 H 24 26.25 C 26.6655,38 27,37.6655 27,37.25 V 35 32.75 C 27,32.3345 26.6655,32 26.25,32 H 24 Z m 0.25,1 4,2 -4,2 z"/>
 <path style="opacity:0.2" d="M 10.75,33 C 10.3345,33 10,33.3345 10,33.75 V 36 38.25 C 10,38.6655 10.3345,39 10.75,39 H 13 15.25 C 15.6655,39 16,38.6655 16,38.25 V 36 33.75 C 16,33.3345 15.6655,33 15.25,33 H 13 Z M 11,34 h 1 v 1.75 L 15,34 v 4 L 12,36.25 V 38 h -1 v -2 z"/>
 <path style="fill:#ffffff" d="M 10.75,32 C 10.3345,32 10,32.3345 10,32.75 V 35 37.25 C 10,37.6655 10.3345,38 10.75,38 H 13 15.25 C 15.6655,38 16,37.6655 16,37.25 V 35 32.75 C 16,32.3345 15.6655,32 15.25,32 H 13 Z M 11,33 h 1 v 1.75 L 15,33 v 4 L 12,35.25 V 37 h -1 v -2 z"/>
 <path style="fill:#99aad8" d="M 24 6 C 17.352 6 12 11.352 12 18 C 12 24.648 17.352 30 24 30 C 30.648 30 36 24.648 36 18 C 36 11.352 30.648 6 24 6 z M 24 8 C 29.54 8 34 12.46 34 18 C 34 23.54 29.54 28 24 28 C 18.46 28 14 23.54 14 18 C 14 12.46 18.46 8 24 8 z M 19.416016 11.541016 A 0.50005 0.50005 0 0 0 19.119141 11.662109 C 17.03596 13.266374 15.874111 15.792255 16.011719 18.417969 A 0.50005 0.50005 0 0 0 16.544922 18.898438 A 0.50005 0.50005 0 0 0 17.009766 18.367188 C 16.889306 16.068676 17.904931 13.857474 19.728516 12.453125 A 0.50005 0.50005 0 0 0 19.416016 11.541016 z M 24 13 C 21.23 13 19 15.23 19 18 C 19 20.77 21.23 23 24 23 C 26.77 23 29 20.77 29 18 C 29 15.23 26.77 13 24 13 z M 24 17 C 24.554 17 25 17.446 25 18 C 25 18.554 24.554 19 24 19 C 23.446 19 23 18.554 23 18 C 23 17.446 23.446 17 24 17 z M 31.455078 17.101562 A 0.50005 0.50005 0 0 0 30.990234 17.632812 C 31.110694 19.931324 30.095069 22.142526 28.271484 23.546875 A 0.50005 0.50005 0 1 0 28.880859 24.337891 C 30.96404 22.733626 32.125889 20.207745 31.988281 17.582031 A 0.50005 0.50005 0 0 0 31.455078 17.101562 z"/>
 <path style="opacity:0.3" d="m 31.235431,42 h 6.257706 c 0.675817,0.0096 0.675817,-1.009563 0,-1 h -6.549081 z"/>
 <path style="opacity:0.2" d="M 37.25,33 C 37.6655,33 38,33.3345 38,33.75 V 36 38.25 C 38,38.6655 37.6655,39 37.25,39 H 35 32.75 C 32.3345,39 32,38.6655 32,38.25 V 36 33.75 C 32,33.3345 32.3345,33 32.75,33 H 35 Z M 37,34 h -1 v 1.75 L 33,34 v 4 l 3,-1.75 V 38 h 1 v -2 z"/>
 <path style="fill:#ffffff" d="M 37.25,32 C 37.6655,32 38,32.3345 38,32.75 V 35 37.25 C 38,37.6655 37.6655,38 37.25,38 H 35 32.75 C 32.3345,38 32,37.6655 32,37.25 V 35 32.75 C 32,32.3345 32.3345,32 32.75,32 H 35 Z M 37,33 h -1 v 1.75 L 33,33 v 4 l 3,-1.75 V 37 h 1 v -2 z"/>
 <path style="fill:#0fdeff" d="m 10.506863,41 c -0.6758172,-0.0096 -0.6758172,1.009563 0,1 h 20.029268 l -0.05828,-1 z"/>
 <circle style="opacity:0.2" cx="30.5" cy="42.5" r="1.5"/>
 <circle style="fill:#ffffff" cx="30.5" cy="41.5" r="1.5"/>
 <path style="fill:#ffffff;opacity:0.1" d="M 9 4 C 7.892 4 7 4.892 7 6 L 7 7 C 7 5.892 7.892 5 9 5 L 39 5 C 40.108 5 41 5.892 41 7 L 41 6 C 41 4.892 40.108 4 39 4 L 9 4 z"/>
 <path style="fill:#ffffff;opacity:0.2" d="M 24 6 C 17.352 6 12 11.352 12 18 C 12 18.168838 12.018553 18.3329 12.025391 18.5 C 12.287784 12.087544 17.520838 7 24 7 C 30.479162 7 35.712216 12.087544 35.974609 18.5 C 35.981447 18.3329 36 18.168838 36 18 C 36 11.352 30.648 6 24 6 z M 19.416016 11.541016 A 0.50005 0.50005 0 0 0 19.119141 11.662109 C 17.03596 13.266374 15.874111 15.792255 16.011719 18.417969 A 0.50005 0.50005 0 0 0 16.019531 18.484375 C 16.166584 16.203076 17.284404 14.075047 19.119141 12.662109 A 0.50005 0.50005 0 0 1 19.416016 12.541016 A 0.50005 0.50005 0 0 1 19.601562 12.564453 C 19.645566 12.528833 19.683523 12.487774 19.728516 12.453125 A 0.50005 0.50005 0 0 0 19.416016 11.541016 z M 24 13 C 21.23 13 19 15.23 19 18 C 19 18.16917 19.009141 18.335243 19.025391 18.5 C 19.275219 15.967018 21.39917 14 24 14 C 26.60083 14 28.724781 15.967018 28.974609 18.5 C 28.990859 18.335243 29 18.16917 29 18 C 29 15.23 26.77 13 24 13 z M 31.455078 17.101562 A 0.50005 0.50005 0 0 0 30.990234 17.632812 C 31.110694 19.931324 30.095069 22.142526 28.271484 23.546875 A 0.50005 0.50005 0 0 0 28.398438 24.435547 C 30.137951 23.027442 31.107722 20.874615 30.990234 18.632812 A 0.50005 0.50005 0 0 1 31.455078 18.101562 A 0.50005 0.50005 0 0 1 31.980469 18.515625 C 32.000381 18.206711 32.004693 17.895179 31.988281 17.582031 A 0.50005 0.50005 0 0 0 31.455078 17.101562 z M 14.025391 18.5 C 14.0172 18.666746 14 18.831151 14 19 C 14 24.54 18.46 29 24 29 C 29.54 29 34 24.54 34 19 C 34 18.831151 33.9828 18.666746 33.974609 18.5 C 33.714075 23.804281 29.371151 28 24 28 C 18.628849 28 14.285925 23.804281 14.025391 18.5 z M 23.152344 18.5 C 23.064267 18.649055 23 18.813633 23 19 C 23 19.554 23.446 20 24 20 C 24.554 20 25 19.554 25 19 C 25 18.813633 24.935733 18.649055 24.847656 18.5 C 24.673913 18.794032 24.367633 19 24 19 C 23.632367 19 23.326087 18.794032 23.152344 18.5 z"/>
</svg>

<svg clip-rule="evenodd" fill-rule="evenodd" stroke-linejoin="round" stroke-miterlimit="2" viewBox="0 0 48 48" xmlns="http://www.w3.org/2000/svg">
 <linearGradient id="a" x2="1" gradientTransform="matrix(0 -33.6872 33.6872 0 923.28 40.4502)" gradientUnits="userSpaceOnUse">
  <stop stop-color="#4636aa" offset="0"/>
  <stop stop-color="#3f5ed1" offset="1"/>
 </linearGradient>
 <path d="m39.44 45.668h-30.88c-3.438 0-6.228-2.79-6.228-6.228v-30.88c0-3.438 2.79-6.228 6.228-6.228h30.88c3.438 0 6.228 2.79 6.228 6.228v30.88c0 3.438-2.79 6.228-6.228 6.228z" fill="url(#a)"/>
 <g fill-rule="nonzero">
  <path d="m21.75 32c-.416 0-.75.334-.75.75v4.5c0 .416.334.75.75.75h4.5c.416 0 .75-.334.75-.75v-4.5c0-.416-.334-.75-.75-.75zm.25 1 4 2-4 2z" fill="#fff"/>
  <path d="m10.75 32c-.415 0-.75.334-.75.75v4.5c0 .416.335.75.75.75h4.5c.415 0 .75-.334.75-.75v-4.5c0-.416-.335-.75-.75-.75zm.25 1h1v1.75l3-1.75v4l-3-1.75v1.75h-1z" fill="#fff"/>
  <path d="m24 6c-6.648 0-12 5.352-12 12s5.352 12 12 12 12-5.352 12-12-5.352-12-12-12zm0 2c5.54 0 10 4.46 10 10s-4.46 10-10 10-10-4.46-10-10 4.46-10 10-10zm-4.584 3.541c-.11.007-.214.049-.297.121-2.083 1.604-3.245 4.13-3.107 6.756.01.267.232.482.499.482.012 0 .023-.001.034-.002.273-.018.482-.258.465-.531-.121-2.298.895-4.51 2.719-5.914.136-.093.218-.248.218-.413 0-.274-.226-.5-.5-.5-.011 0-.021 0-.031.001zm4.584 1.459c-2.77 0-5 2.23-5 5s2.23 5 5 5 5-2.23 5-5-2.23-5-5-5zm0 4c.554 0 1 .446 1 1s-.446 1-1 1-1-.446-1-1 .446-1 1-1zm7.455.102c-.273.018-.482.258-.465.531.121 2.298-.895 4.51-2.719 5.914-.136.093-.217.248-.217.413 0 .274.226.5.5.5.12 0 .236-.044.327-.122 2.083-1.604 3.245-4.13 3.107-6.756-.01-.267-.232-.482-.499-.482-.012 0-.023.001-.034.002z" fill="#99aad8"/>
  <path d="m31.235 42h6.258c.676.01.676-1.01 0-1h-6.549z" fill-opacity=".3"/>
  <path d="m37.25 32c.416 0 .75.334.75.75v4.5c0 .416-.334.75-.75.75h-4.5c-.416 0-.75-.334-.75-.75v-4.5c0-.416.334-.75.75-.75zm-.25 1h-1v1.75l-3-1.75v4l3-1.75v1.75h1z" fill="#fff"/>
  <path d="m10.507 41c-.676-.01-.676 1.01 0 1h20.029l-.058-1z" fill="#0fdeff"/>
 </g>
 <circle cx="30.5" cy="41.5" r="1.5" fill="#fff"/>
</svg>
